svgs/solid/starship-freighter.svg

<svg xmlns="http://www.w3.org/2000/svg" viewBox="0 0 576 512"><!--! Font Awesome Pro 6.2.0 by @fontawesome - https://fontawesome.com License - https://fontawesome.com/license (Commercial License) Copyright 2022 Fonticons, Inc. --><path d="M224 480C100.3 480 0 379.7 0 256S100.3 32 224 32c42.3 0 84.2 7.9 123.6 23.2l207.9 80.9c12.3 4.8 20.4 16.6 20.4 29.8V208c0 8.8-7.2 16-16 16H445.7 432c-8.8 0-16 7.2-16 16v32c0 8.8 7.2 16 16 16h13.7H560c8.8 0 16 7.2 16 16v42.1c0 13.2-8.1 25-20.4 29.8l-82.1 31.9c4.1 7.1 6.5 15.3 6.5 24.1c0 26.5-21.5 48-48 48H352c-11.5 0-21.6-6.1-27.3-15.2C292.2 474.9 258.2 480 224 480zm0-176c-26.5 0-48-21.5-48-48s21.5-48 48-48s48 21.5 48 48s-21.5 48-48 48zm0 32c44.2 0 80-35.8 80-80s-35.8-80-80-80s-80 35.8-80 80s35.8 80 80 80zM80 272c8.8 0 16-7.2 16-16s-7.2-16-16-16s-16 7.2-16 16s7.2 16 16 16zm48-112c0-8.8-7.2-16-16-16s-16 7.2-16 16s7.2 16 16 16s16-7.2 16-16zM112 368c8.8 0 16-7.2 16-16s-7.2-16-16-16s-16 7.2-16 16s7.2 16 16 16z"/></svg>

<svg xmlns="http://www.w3.org/2000/svg" viewBox="0 0 576 512"><!--! Font Awesome Pro 6.1.2 by @fontawesome - https://fontawesome.com License - https://fontawesome.com/license (Commercial License) Copyright 2022 Fonticons, Inc. --><path d="M176 256C176 229.5 197.5 208 224 208C250.5 208 272 229.5 272 256C272 282.5 250.5 304 224 304C197.5 304 176 282.5 176 256zM224 480C100.3 480 0 379.7 0 256C0 132.3 100.3 32 224 32C266.3 32 308.2 39.87 347.6 55.2L555.6 136.1C567.9 140.8 576 152.7 576 165.9V207.1C576 216.8 568.8 223.1 560 223.1H432C423.2 223.1 416 231.2 416 239.1V271.1C416 280.8 423.2 287.1 432 287.1H560C568.8 287.1 576 295.2 576 303.1V346.1C576 359.3 567.9 371.2 555.6 375.9L473.5 407.9C477.6 414.1 480 423.2 480 432C480 458.5 458.5 480 432 480H352C340.5 480 330.4 473.9 324.7 464.8C292.2 474.9 258.2 480 224 480V480zM224 336C268.2 336 304 300.2 304 256C304 211.8 268.2 176 224 176C179.8 176 144 211.8 144 256C144 300.2 179.8 336 224 336zM80 272C88.84 272 96 264.8 96 256C96 247.2 88.84 240 80 240C71.16 240 64 247.2 64 256C64 264.8 71.16 272 80 272zM112 144C103.2 144 96 151.2 96 160C96 168.8 103.2 176 112 176C120.8 176 128 168.8 128 160C128 151.2 120.8 144 112 144zM112 368C120.8 368 128 360.8 128 352C128 343.2 120.8 336 112 336C103.2 336 96 343.2 96 352C96 360.8 103.2 368 112 368z"/></svg>
